build/finance/PayrollCardOutline.svg

<svg xmlns="http://www.w3.org/2000/svg" fill="none" viewBox="0 0 24 24" focusable="false"><path d="M0 0H24V24H0z"/><path fill="#74767B" fill-rule="evenodd" d="M6 19C4.34314 19 3 17.6569 3 16L3 8C3 6.34315 4.34315 5 6 5L18 5C18.1036 5 18.2059 5.00525 18.3067 5.01549C19.8195 5.16912 21 6.4467 21 8L21 16C21 17.6569 19.6569 19 18 19L6 19ZM19.7 8C19.7 7.06112 18.9389 6.3 18 6.3L6 6.3C5.06112 6.3 4.3 7.06112 4.3 8L4.3 8.3194C4.36165 8.30001 4.42726 8.28955 4.49531 8.28955L19.7 8.28955L19.7 8ZM4.3 16L4.3 9.5597C4.36165 9.57909 4.42726 9.58955 4.49531 9.58955L19.7 9.58955L19.7 16C19.7 16.9389 18.9389 17.7 18 17.7L6 17.7C5.06112 17.7 4.3 16.9389 4.3 16ZM12.9749 10.7472C12.6159 10.7472 12.3249 11.0382 12.3249 11.3972L12.3249 15.8683C12.3249 16.2273 12.6159 16.5183 12.9749 16.5183C13.3339 16.5183 13.6249 16.2273 13.6249 15.8683L13.6249 12.0472L15.6335 12.0472L15.6335 15.8683C15.6335 16.2273 15.9245 16.5183 16.2835 16.5183C16.6425 16.5183 16.9335 16.2273 16.9335 15.8683L16.9335 11.3972C16.9335 11.0382 16.6425 10.7472 16.2835 10.7472L12.9749 10.7472ZM8.71193 12.0611C8.505 12.0611 8.3044 12.1325 8.144 12.2632L8.12717 12.2769C7.84892 12.5038 7.43948 12.4621 7.21267 12.1838C6.98585 11.9056 7.02755 11.4961 7.3058 11.2693L7.32262 11.2556C7.715 10.9357 8.20571 10.7611 8.71193 10.7611L9.17018 10.7611C10.1315 10.7611 10.9108 11.5404 10.9108 12.5017C10.9108 12.8891 10.7843 13.2469 10.5703 13.536C10.8552 13.8529 11.0285 14.2721 11.0285 14.7318C11.0285 15.7201 10.2274 16.5213 9.23907 16.5213L8.75751 16.5213C8.23524 16.5213 7.72892 16.3413 7.32387 16.0116L7.30616 15.9971C7.02774 15.7705 6.98576 15.3611 7.21238 15.0827C7.439 14.8043 7.84841 14.7623 8.12682 14.9889L8.14453 15.0033C8.31772 15.1443 8.5342 15.2213 8.75751 15.2213L9.23907 15.2213C9.50939 15.2213 9.72852 15.0021 9.72852 14.7318C9.72852 14.4615 9.50938 14.2424 9.23907 14.2424L9.14737 14.2424L9.13929 14.2423L9.0841 14.2423C8.72511 14.2423 8.4341 13.9513 8.4341 13.5923C8.4341 13.2334 8.72511 12.9423 9.0841 12.9423L9.17018 12.9423C9.41353 12.9423 9.6108 12.7451 9.61081 12.5017C9.61081 12.2584 9.41353 12.0611 9.17018 12.0611L8.71193 12.0611Z"/></svg>

<svg xmlns="http://www.w3.org/2000/svg" fill="none" viewBox="0 0 24 24" focusable="false"><path fill="#74767B" fill-rule="evenodd" d="M6 19c-1.66 0-3-1.35-3-3V8c0-1.66 1.34-3 3-3h12c.1 0 .2 0 .3.01C19.81 5.16 21 6.44 21 8v8c0 1.65-1.35 3-3 3zM19.7 8c0-.94-.77-1.7-1.7-1.7H6c-.94 0-1.7.76-1.7 1.7v.31c.06-.01.12-.03.19-.03H19.7zM4.3 16V9.55c.06.02.12.03.19.03H19.7V16c0 .93-.77 1.7-1.7 1.7H6c-.94 0-1.7-.77-1.7-1.7m8.02-4.61c0-.36.29-.65.65-.65h3.31c.36 0 .65.29.65.65v4.47c0 .36-.29.65-.65.65s-.65-.29-.65-.65v-3.82h-2.01v3.82c0 .36-.29.65-.65.65s-.65-.29-.65-.65zm-3.61.67a.9.9 0 0 0-.57.2l-.02.01a.64.64 0 0 1-.91-.09.65.65 0 0 1 .09-.92l.02-.01c.39-.32.88-.49 1.39-.49h.46c.96 0 1.74.78 1.74 1.74 0 .38-.13.74-.34 1.03.28.32.45.74.45 1.2 0 .99-.8 1.79-1.79 1.79h-.48c-.52 0-1.03-.18-1.43-.51l-.02-.02a.64.64 0 0 1-.09-.91.65.65 0 0 1 .91-.1l.02.02c.17.14.39.22.61.22h.48a.49.49 0 0 0 0-.98h-.15c-.36 0-.65-.29-.65-.65s.29-.65.65-.65h.09c.24 0 .44-.2.44-.44 0-.25-.2-.44-.44-.44z"/></svg>
